X:1
T:Behold, a Stone in Zion Laid
T:Behold, a Stone in Zion Laid
T:Tullius Clinton O’Kane
T:Tullius Clinton O’Kane, 1882
T:Public Domain Courtesy of the Cyber Hymnal™
T:Public Domain Courtesy of the Cyber Hymnal™
C:Tullius Clinton O’Kane
Z:Public Domain
Z:Courtesy of the Cyber Hymnal™
%%score ( 1 2 ) ( 3 4 )
L:1/8
Q:1/4=100
M:4/4
K:G
V:1 treble 
V:2 treble 
V:3 bass 
V:4 bass 
V:1
 .[DB]2 .[DB]>.[Ec] .[DB]2 z [^DA] | [EG]2 ([CG][CA]) [EG]3 [CE] | D2 [DG]2 (GA) [GB]2 | %3
w: 1.~Be- hold, a stone in|Zi- on * laid, A|tried, a sure * foun-|
w: 2.~Storms may a- rise, and|tem- pests * blow, And|beat with fu- * ry|
w: 3.~Ne’er shall the gates of|hell pre- * vail, O’er|those who in * the|
 [FA]2 [Fd]2 (d2 c2) | .[DB]2 .[DB]>.[Ec] .[DB]2 z [^DA] | [EG]2 ([CG][CA]) [EG]3 [CE] | %6
w: da- tion stone; *|Thrice blest are they whose|hopes are * staid Up-|
w: on this Rock, *|Still it re- mains, though|wave o’er- * flow, Un-|
w: Lord a- bide, *|Safe- ly they dwell, though|foes as- * sail, For-|
 D2 [DG]2 [DB]3 [EA] | [DG]2 [CF]2 [B,G]4 ||"^Refrain" [Gd]2 [Gd]>[G^c] [Gd]2 [Ge]>[Gd] | %9
w: on this base, and|this a- lone.||
w: moved a- mid the|fierc- est shock.|Some build their hopes on the|
w: ev- er near the|Sav- ior’s side.||
 [Fd][Fc][Fc][FB] [Fc]2 z2 | [Fc]2 [Fc]>[FB] [Fc]2 [Fd]>[Dc] | [Ec][DB][DB][^C^A] [DB]2 z2 | %12
w: |||
w: ev- er drift- ing sand,|Some on their fame, or their|trea- sure, or their land;|
w: |||
 [Gd]2 [Bd]>[Ac] [GB]2 [GB]>[DA] | [DG][DG] (GF) [CE]4 | [Ec]2 [GB]>[EA] [DG]2 [DF]2 | %15
w: |||
w: Mine’s on a Rock that for-|ev- er will * stand,|Je- sus, the “Rock of|
w: |||
 [CA]4 [B,G]4 |] %16
w: |
w: Ag- es.”|
w: |
V:2
 x8 | x8 | D2 D2 x4 | x4 F4 | x8 | x8 | D2 x6 | x8 || x8 | x8 | x8 | x8 | x8 | x2 D2 x4 | x8 | %15
 x8 |] %16
V:3
 [G,,G,]2 [G,,G,]>[G,,G,] [G,,G,]2 z [B,,F,] | [C,G,]2 [C,G,]2 [C,C]3 [C,G,] | %2
 [B,,G,]2 [G,,B,]2 (B,C) [G,,G,D]2 | [D,D]2 [D,A,]2 [D,A,]4 | %4
 [G,,G,]2 [G,,G,]>[G,,G,] [G,,G,]2 z [B,,F,] | [C,G,]2 [C,G,]2 [C,C]3 [C,G,] | %6
 [B,,G,]2 [G,,B,]2 ([G,,G,][A,,F,][B,,G,])[C,C] | [D,B,]2 [D,A,]2 [G,,G,]4 || %8
 [G,B,]2 [G,B,]>[G,^A,] [G,B,]2 [G,C]>[G,B,] | [D,B,][D,A,][D,A,][D,^G,] [D,A,]2 z2 | %10
 [D,A,]2 [D,A,]>[D,^G,] [D,A,]2 [D,B,]>[D,A,] | [G,,G,][G,,G,][G,,G,][G,,G,] [G,,G,]2 z2 | %12
 [G,B,]2 [G,D]>[G,D] [G,D]2 [G,D]>[G,C] | [G,B,][G,B,] [B,,G,]2 [C,G,]4 | %14
 [A,,A,]2 [B,,D]>[C,C] [D,B,]2 [D,A,]2 | [D,F,]4 [G,,G,]4 |] %16
V:4
 x8 | x8 | x4 [G,,G,]2 x2 | x8 | x8 | x8 | x8 | x8 || x8 | x8 | x8 | x8 | x8 | x8 | x8 | x8 |] %16

